src/images/crypto-icon-svg/bcn.svg

<svg xmlns="http://www.w3.org/2000/svg" width="32" height="32" viewBox="0 0 32 32">
  <g fill="none">
    <circle cx="15.999" cy="15.999" r="15.999" fill="#F04086"/>
    <path fill="#FFF" d="M23.437037,16.7540741 C22.8079012,16.0577778 21.9012346,15.625679 20.717037,15.4577778 L20.717037,15.4325926 C21.7540741,15.2651852 22.5688889,14.84 23.122963,14.16 C23.685384,13.4855381 23.9908395,12.6337265 23.9851852,11.7555556 C23.9851852,10.2948148 23.5140741,9.30222222 22.5407407,8.52148148 C21.5674074,7.74074074 20.1051852,7.48444444 18.1244444,7.48444444 L10.642963,7.48444444 L10.642963,14.4474074 L6.34666667,14.4474074 L6.34666667,17.1140741 L18.0740741,17.1140741 C18.997037,17.1140741 19.6903704,17.1792593 20.1481481,17.5481481 C20.6059259,17.917037 20.84,18.3940741 20.84,19.0992593 C20.84,19.8044444 20.6088889,20.4059259 20.1481481,20.7837037 C19.6874074,21.1614815 18.9940741,21.4103704 18.0740741,21.4103704 L14.0503704,21.4103704 L14.0503704,19.3362963 L10.642963,19.3362963 L10.642963,24.077037 L18.3703704,24.077037 C20.3348148,24.077037 21.837037,23.5644444 22.8785185,22.7674074 C23.92,21.9703704 24.4088889,20.7925926 24.4088889,19.3481481 C24.4218583,18.3921526 24.0749627,17.4662163 23.437037,16.7540741 Z M17.6444444,14.44 L14.0503704,14.44 L14.0503704,10.1437037 L17.6444444,10.1437037 C19.4918519,10.1437037 20.4148148,10.8651852 20.4148148,12.2918519 C20.4148148,13.7185185 19.4918519,14.44 17.6444444,14.44 Z"/>
  </g>
</svg>

<svg xmlns="http://www.w3.org/2000/svg" width="32" height="32"><g fill="none"><circle cx="15.999" cy="15.999" r="15.999" fill="#F04086"/><path fill="#FFF" d="M23.437 16.754c-.63-.696-1.536-1.128-2.72-1.296v-.025c1.037-.168 1.852-.593 2.406-1.273a3.717 3.717 0 0 0 .862-2.404c0-1.461-.47-2.454-1.444-3.235-.974-.78-2.436-1.037-4.417-1.037h-7.481v6.963H6.347v2.667h11.727c.923 0 1.616.065 2.074.434.458.369.692.846.692 1.551s-.231 1.307-.692 1.685c-.46.377-1.154.626-2.074.626H14.05v-2.074h-3.407v4.741h7.727c1.965 0 3.467-.513 4.509-1.31 1.041-.797 1.53-1.974 1.53-3.419a3.81 3.81 0 0 0-.972-2.594zm-5.793-2.314H14.05v-4.296h3.594c1.848 0 2.77.721 2.77 2.148s-.922 2.148-2.77 2.148z"/></g></svg>
